svgs/regular/square-parking.svg

<svg xmlns="http://www.w3.org/2000/svg" viewBox="0 0 448 512"><!--! Font Awesome Pro 6.6.0 by @fontawesome - https://fontawesome.com License - https://fontawesome.com/license (Commercial License) Copyright 2024 Fonticons, Inc. --><path d="M64 80c-8.8 0-16 7.2-16 16l0 320c0 8.8 7.2 16 16 16l320 0c8.8 0 16-7.2 16-16l0-320c0-8.8-7.2-16-16-16L64 80zM0 96C0 60.7 28.7 32 64 32l320 0c35.3 0 64 28.7 64 64l0 320c0 35.3-28.7 64-64 64L64 480c-35.3 0-64-28.7-64-64L0 96zM184 272l64 0c26.5 0 48-21.5 48-48s-21.5-48-48-48l-64 0 0 96zm64 48l-64 0 0 40c0 13.3-10.7 24-24 24s-24-10.7-24-24l0-64 0-136c0-17.7 14.3-32 32-32l80 0c53 0 96 43 96 96s-43 96-96 96z"/></svg>

<svg xmlns="http://www.w3.org/2000/svg" viewBox="0 0 448 512"><!--! Font Awesome Pro 6.4.0 by @fontawesome - https://fontawesome.com License - https://fontawesome.com/license (Commercial License) Copyright 2023 Fonticons, Inc. --><path d="M64 80c-8.8 0-16 7.2-16 16V416c0 8.8 7.2 16 16 16H384c8.8 0 16-7.2 16-16V96c0-8.8-7.2-16-16-16H64zM0 96C0 60.7 28.7 32 64 32H384c35.3 0 64 28.7 64 64V416c0 35.3-28.7 64-64 64H64c-35.3 0-64-28.7-64-64V96zM184 272h64c26.5 0 48-21.5 48-48s-21.5-48-48-48H184v96zm64 48H184v40c0 13.3-10.7 24-24 24s-24-10.7-24-24V296 160c0-17.7 14.3-32 32-32h80c53 0 96 43 96 96s-43 96-96 96z"/></svg>
